src/images/instagram-logo.svg

<?xml version="1.0" encoding="UTF-8"?>
<svg fill="none" viewBox="0 0 46 46" xmlns="http://www.w3.org/2000/svg">
<path d="m23.599 3.8796c4.6185 0 5.2913 0.02471 7.2375 0.11403 2.0222 0.09313 3.404 0.41434 4.6127 0.88378 1.2687 0.47681 2.418 1.2247 3.3679 2.1914 0.9667 0.94987 1.7146 2.0992 2.1914 3.3679 0.4695 1.2088 0.7907 2.5905 0.8838 4.6128 0.0912 2.0279 0.114 2.6741 0.114 7.8361v0.1521c0 5.0233-0.0228 5.6771-0.114 7.6841-0.0931 2.0222-0.4143 3.404-0.8838 4.6127-0.4768 1.2687-1.2247 2.418-2.1914 3.3679-0.9499 0.9667-2.0992 1.7146-3.3679 2.1914-1.2087 0.4694-2.5905 0.7906-4.6127 0.8838-2.0279 0.0912-2.6741 0.114-7.8362 0.114h-0.152c-5.0233 0-5.6771-0.0228-7.6841-0.114-2.0223-0.0932-3.404-0.4144-4.6128-0.8838-1.2686-0.4768-2.418-1.2247-3.3678-2.1914-0.96673-0.9499-1.7146-2.0992-2.1914-3.3679-0.46945-1.2087-0.79065-2.5905-0.88378-4.6127-0.08933-1.9462-0.11404-2.6209-0.11404-7.2375v-1.1974c0-4.6184 0.02471-5.2912 0.11404-7.2374 0.09313-2.0223 0.41433-3.404 0.88378-4.6128 0.47681-1.2686 1.2247-2.418 2.1914-3.3679 0.94986-0.96672 2.0992-1.7146 3.3678-2.1914 1.2088-0.46944 2.5905-0.79065 4.6128-0.88378 1.9462-0.08932 2.6209-0.11403 7.2374-0.11403h1.1974zm-0.1539 3.4249h-0.8895c-4.6679 0-5.2913 0.0209-7.2356 0.11023-1.8531 0.08553-2.8585 0.39343-3.5294 0.65381-0.8876 0.34591-1.5205 0.75644-2.1857 1.4216-0.66521 0.66519-1.0757 1.2981-1.4216 2.1857-0.26038 0.6709-0.57018 1.6763-0.65381 3.5294-0.08932 1.9443-0.11023 2.5677-0.11023 7.2356v0.8895c0 4.6678 0.02091 5.2912 0.11023 7.2355 0.08553 1.8531 0.39343 2.8585 0.65381 3.5295 0.34591 0.8856 0.75834 1.5204 1.4216 2.1856 0.66519 0.6653 1.2981 1.0758 2.1857 1.4217 0.6709 0.2604 1.6763 0.5702 3.5294 0.6538 2.0032 0.0912 2.6038 0.1102 7.6803 0.1102h0.1521c4.9358 0 5.544-0.019 7.5263-0.1102 1.855-0.0855 2.8604-0.3934 3.5314-0.6538 0.8856-0.3459 1.5204-0.7564 2.1856-1.4217 0.6653-0.6652 1.0758-1.2981 1.4217-2.1856 0.2604-0.671 0.5702-1.6764 0.6538-3.5295 0.0912-2.0051 0.1102-2.6038 0.1102-7.6803v-0.152c0-4.9359-0.019-5.5441-0.1102-7.5264-0.0855-1.855-0.3934-2.8604-0.6538-3.5313-0.3045-0.8257-0.7903-1.5726-1.4217-2.1857-0.6131-0.63127-1.36-1.1171-2.1856-1.4216-0.671-0.26038-1.6764-0.57018-3.5295-0.65381-1.9443-0.08933-2.5677-0.11023-7.2355-0.11023zm-0.4448 5.8216c1.2817 0 2.5508 0.2524 3.7349 0.7429 1.184 0.4904 2.2599 1.2093 3.1662 2.1156 0.9063 0.9062 1.6251 1.9821 2.1156 3.1662s0.7429 2.4532 0.7429 3.7348c0 1.2817-0.2524 2.5508-0.7429 3.7349-0.4905 1.184-1.2093 2.2599-2.1156 3.1662-0.9063 0.9062-1.9822 1.6251-3.1662 2.1156-1.1841 0.4905-2.4532 0.7429-3.7349 0.7429-2.5884 0-5.0708-1.0282-6.901-2.8585-1.8303-1.8303-2.8585-4.3127-2.8585-6.9011s1.0282-5.0708 2.8585-6.901c1.8302-1.8303 4.3126-2.8585 6.901-2.8585zm0 3.4248c-1.68 0-3.2913 0.6674-4.4793 1.8554s-1.8554 2.7993-1.8554 4.4793c0 1.6801 0.6674 3.2913 1.8554 4.4793s2.7993 1.8554 4.4793 1.8554c1.6801 0 3.2913-0.6674 4.4793-1.8554s1.8554-2.7992 1.8554-4.4793c0-1.68-0.6674-3.2913-1.8554-4.4793s-2.7992-1.8554-4.4793-1.8554zm10.145-6.0914c0.6049 0 1.185 0.2403 1.6127 0.668 0.4278 0.4277 0.668 1.0078 0.668 1.6127s-0.2402 1.185-0.668 1.6127c-0.4277 0.4278-1.0078 0.668-1.6127 0.668s-1.185-0.2402-1.6127-0.668c-0.4277-0.4277-0.668-1.0078-0.668-1.6127s0.2403-1.185 0.668-1.6127 1.0078-0.668 1.6127-0.668z" clip-rule="evenodd" fill="#fff" fill-rule="evenodd"/>
</svg>

<svg width="46" height="46" viewBox="0 0 46 46" fill="none" xmlns="http://www.w3.org/2000/svg">
<path fill-rule="evenodd" clip-rule="evenodd" d="M23.5988 3.87964C28.2173 3.87964 28.8901 3.90435 30.8363 3.99367C32.8585 4.0868 34.2403 4.40801 35.449 4.87745C36.7177 5.35426 37.867 6.10212 38.8169 7.06884C39.7836 8.01871 40.5315 9.16806 41.0083 10.4367C41.4778 11.6455 41.799 13.0272 41.8921 15.0495C41.9833 17.0774 42.0061 17.7236 42.0061 22.8856V23.0377C42.0061 28.061 41.9833 28.7148 41.8921 30.7218C41.799 32.744 41.4778 34.1258 41.0083 35.3345C40.5315 36.6032 39.7836 37.7525 38.8169 38.7024C37.867 39.6691 36.7177 40.417 35.449 40.8938C34.2403 41.3632 32.8585 41.6844 30.8363 41.7776C28.8084 41.8688 28.1622 41.8916 23.0001 41.8916H22.8481C17.8248 41.8916 17.171 41.8688 15.164 41.7776C13.1417 41.6844 11.76 41.3632 10.5512 40.8938C9.28256 40.417 8.13321 39.6691 7.18335 38.7024C6.21662 37.7525 5.46877 36.6032 4.99196 35.3345C4.52251 34.1258 4.20131 32.744 4.10818 30.7218C4.01885 28.7756 3.99414 28.1009 3.99414 23.4843V22.2869C3.99414 17.6685 4.01885 16.9957 4.10818 15.0495C4.20131 13.0272 4.52251 11.6455 4.99196 10.4367C5.46877 9.16806 6.21662 8.01871 7.18335 7.06884C8.13321 6.10212 9.28256 5.35426 10.5512 4.87745C11.76 4.40801 13.1417 4.0868 15.164 3.99367C17.1102 3.90435 17.7849 3.87964 22.4014 3.87964H23.5988ZM23.4449 7.30452H22.5554C17.8875 7.30452 17.2641 7.32542 15.3198 7.41475C13.4667 7.50028 12.4613 7.80818 11.7904 8.06856C10.9028 8.41447 10.2699 8.825 9.60471 9.49021C8.9395 10.1554 8.52897 10.7883 8.18306 11.6759C7.92268 12.3468 7.61288 13.3522 7.52925 15.2053C7.43993 17.1496 7.41902 17.773 7.41902 22.4409V23.3304C7.41902 27.9982 7.43993 28.6216 7.52925 30.5659C7.61478 32.419 7.92268 33.4244 8.18306 34.0954C8.52897 34.981 8.9414 35.6158 9.60471 36.281C10.2699 36.9463 10.9028 37.3568 11.7904 37.7027C12.4613 37.9631 13.4667 38.2729 15.3198 38.3565C17.323 38.4477 17.9236 38.4667 23.0001 38.4667H23.1522C28.088 38.4667 28.6962 38.4477 30.6785 38.3565C32.5335 38.271 33.5389 37.9631 34.2099 37.7027C35.0955 37.3568 35.7303 36.9463 36.3955 36.281C37.0608 35.6158 37.4713 34.9829 37.8172 34.0954C38.0776 33.4244 38.3874 32.419 38.471 30.5659C38.5622 28.5608 38.5812 27.9621 38.5812 22.8856V22.7336C38.5812 17.7977 38.5622 17.1895 38.471 15.2072C38.3855 13.3522 38.0776 12.3468 37.8172 11.6759C37.5127 10.8502 37.0269 10.1033 36.3955 9.49021C35.7824 8.85894 35.0355 8.37315 34.2099 8.06856C33.5389 7.80818 32.5335 7.49838 30.6804 7.41475C28.7361 7.32542 28.1127 7.30452 23.4449 7.30452ZM23.0001 13.1261C24.2818 13.1261 25.5509 13.3785 26.735 13.869C27.919 14.3594 28.9949 15.0783 29.9012 15.9846C30.8075 16.8908 31.5263 17.9667 32.0168 19.1508C32.5073 20.3349 32.7597 21.604 32.7597 22.8856C32.7597 24.1673 32.5073 25.4364 32.0168 26.6205C31.5263 27.8045 30.8075 28.8804 29.9012 29.7867C28.9949 30.6929 27.919 31.4118 26.735 31.9023C25.5509 32.3928 24.2818 32.6452 23.0001 32.6452C20.4117 32.6452 17.9293 31.617 16.0991 29.7867C14.2688 27.9564 13.2406 25.474 13.2406 22.8856C13.2406 20.2972 14.2688 17.8148 16.0991 15.9846C17.9293 14.1543 20.4117 13.1261 23.0001 13.1261ZM23.0001 16.5509C21.3201 16.5509 19.7088 17.2183 18.5208 18.4063C17.3328 19.5943 16.6654 21.2056 16.6654 22.8856C16.6654 24.5657 17.3328 26.1769 18.5208 27.3649C19.7088 28.5529 21.3201 29.2203 23.0001 29.2203C24.6802 29.2203 26.2914 28.5529 27.4794 27.3649C28.6674 26.1769 29.3348 24.5657 29.3348 22.8856C29.3348 21.2056 28.6674 19.5943 27.4794 18.4063C26.2914 17.2183 24.6802 16.5509 23.0001 16.5509ZM33.1455 10.4595C33.7504 10.4595 34.3305 10.6998 34.7582 11.1275C35.186 11.5552 35.4262 12.1353 35.4262 12.7402C35.4262 13.3451 35.186 13.9252 34.7582 14.3529C34.3305 14.7807 33.7504 15.0209 33.1455 15.0209C32.5406 15.0209 31.9605 14.7807 31.5328 14.3529C31.1051 13.9252 30.8648 13.3451 30.8648 12.7402C30.8648 12.1353 31.1051 11.5552 31.5328 11.1275C31.9605 10.6998 32.5406 10.4595 33.1455 10.4595Z" fill="white"/>
</svg>
